build/documents/XLSOutline.svg

<svg xmlns="http://www.w3.org/2000/svg" fill="none" viewBox="0 0 24 24" focusable="false"><path d="M0 0H24V24H0z"/><path fill="#74767B" fill-rule="evenodd" d="M20.65 6.3501C20.65 4.69324 19.3069 3.3501 17.65 3.3501L9.65 3.3501C7.99314 3.3501 6.65 4.69324 6.65 6.3501L6.65 16.3501C6.65 18.007 7.99314 19.3501 9.65 19.3501L17.65 19.3501C19.3069 19.3501 20.65 18.007 20.65 16.3501L20.65 6.3501ZM17.65 4.6501L9.65 4.6501C8.71112 4.6501 7.95 5.41121 7.95 6.3501L7.95 16.3501C7.95 17.289 8.71112 18.0501 9.65 18.0501L17.65 18.0501C18.5889 18.0501 19.35 17.289 19.35 16.3501L19.35 6.3501C19.35 5.41121 18.5889 4.6501 17.65 4.6501ZM11.5401 9.46858C11.346 9.16658 11.4335 8.76443 11.7355 8.57036C12.0375 8.37628 12.4397 8.46378 12.6337 8.76578L13.652 10.3503L14.6702 8.76578C14.8643 8.46378 15.2665 8.37628 15.5685 8.57036C15.8705 8.76443 15.958 9.16658 15.7639 9.46858L14.548 11.3607L15.7617 13.2236C15.9576 13.5244 15.8727 13.9271 15.5719 14.123C15.2711 14.319 14.8684 14.234 14.6724 13.9333L13.652 12.3669L12.6315 13.9333C12.4356 14.234 12.0329 14.319 11.7321 14.123C11.4313 13.9271 11.3463 13.5244 11.5423 13.2236L12.756 11.3607L11.5401 9.46858ZM4 9.3501C4 8.99111 4.29101 8.7001 4.65 8.7001C5.00898 8.7001 5.3 8.99111 5.3 9.3501L5.3 18.7501C5.3 19.8271 6.17304 20.7001 7.25 20.7001L15.65 20.7001C16.009 20.7001 16.3 20.9911 16.3 21.3501C16.3 21.7091 16.009 22.0001 15.65 22.0001L7.25 22.0001C5.45507 22.0001 4 20.545 4 18.7501L4 9.3501Z"/></svg>

<svg xmlns="http://www.w3.org/2000/svg" fill="none" viewBox="0 0 24 24" focusable="false"><path fill="#74767B" fill-rule="evenodd" d="M20.64 6.35c0-1.66-1.34-3-3-3h-8c-1.65 0-3 1.34-3 3v10c0 1.65 1.35 3 3 3h8c1.66 0 3-1.35 3-3zm-3-1.7h-8c-.93 0-1.7.76-1.7 1.7v10c0 .93.77 1.7 1.7 1.7h8c.94 0 1.71-.77 1.71-1.7v-10c0-.94-.77-1.7-1.71-1.7m-5.91 3.92c-.3.19-.39.59-.19.89l1.21 1.9-1.21 1.86c-.2.3-.11.7.19.9.3.19.7.11.9-.19l1.02-1.57 1.02 1.57c.19.3.6.38.9.19.3-.2.38-.6.19-.9l-1.22-1.86 1.22-1.9c.19-.3.11-.7-.2-.89-.3-.2-.7-.11-.89.19l-1.02 1.59-1.02-1.59c-.2-.3-.6-.39-.9-.19M4 9.35c0-.36.29-.65.64-.65.36 0 .66.29.66.65v9.4c0 1.07.87 1.95 1.95 1.95h8.39c.36 0 .65.29.65.65 0 .35-.29.65-.65.65H7.25A3.25 3.25 0 0 1 4 18.75z"/></svg>
